packages/ffe-icons/icons/filled/sm/looks_4.svg

<svg xmlns="http://www.w3.org/2000/svg" height="20" viewBox="0 -960 960 960" width="20"><path d="M538.001-442.001v117.738q0 11.013 7.418 18.637 7.418 7.625 18.384 7.625 10.966 0 18.581-7.475 7.615-7.474 7.615-18.524v-312q0-11.05-7.418-18.524-7.418-7.475-18.384-7.475-10.966 0-18.581 7.475-7.615 7.474-7.615 18.524v142.001H421.999V-636q0-11.05-7.418-18.524-7.418-7.475-18.384-7.475-10.966 0-18.581 7.475-7.615 7.474-7.615 18.524v161.846q0 13.665 9.244 22.909t22.909 9.244h135.847Zm-309.692 278q-27.008 0-45.658-18.65-18.65-18.65-18.65-45.658v-503.382q0-27.008 18.65-45.658 18.65-18.65 45.658-18.65h503.382q27.008 0 45.658 18.65 18.65 18.65 18.65 45.658v503.382q0 27.008-18.65 45.658-18.65 18.65-45.658 18.65H228.309Z"/></svg>

<svg xmlns="http://www.w3.org/2000/svg" height="20" viewBox="0 -960 960 960" width="20"><path d="M538-442v117.74q0 11.01 7.42 18.63 7.42 7.63 18.38 7.63 10.97 0 18.58-7.48Q590-312.95 590-324v-312q0-11.05-7.42-18.52-7.42-7.48-18.38-7.48-10.97 0-18.58 7.48Q538-647.05 538-636v142H422v-142q0-11.05-7.42-18.52-7.42-7.48-18.38-7.48-10.97 0-18.58 7.48Q370-647.05 370-636v161.85q0 13.66 9.24 22.91 9.25 9.24 22.91 9.24H538ZM228.31-164q-27.01 0-45.66-18.65Q164-201.3 164-228.31v-503.38q0-27.01 18.65-45.66Q201.3-796 228.31-796h503.38q27.01 0 45.66 18.65Q796-758.7 796-731.69v503.38q0 27.01-18.65 45.66Q758.7-164 731.69-164H228.31Z"/></svg>
